X: 3
T: Crowley's
R: reel
M: 4/4
L: 1/8
K: Dmaj
e|f2 ed edBc|dB{d}BA BAFA|~B3d AFDF|GE{G}ED EFGe|f2 ed edBc|dB{d}BA BAFA|~B3d AFDF|~E3G FDFA||d2 dc dAFA|~B3d cAFA|B{d}B AF G2 FD|~E3G FDFA|d2 d/d/c dAFA|~B3d cAFA|BdAd GdFd|~E3G FDde||


Tune 1180	Setting 14453

